OFDR/img/guarantees/favorites.svg

<svg width="52" height="52" viewBox="0 0 52 52" fill="none" xmlns="http://www.w3.org/2000/svg">
<g id="favorites">
<path id="Shape" fill-rule="evenodd" clip-rule="evenodd" d="M48.8296 16.9315C49.2359 18.2082 48.9035 19.5835 47.9617 20.5205L39.7272 28.7139C39.5656 28.8748 39.4919 29.1066 39.53 29.3338L41.4739 40.9031C41.6962 42.2261 41.1734 43.5382 40.1095 44.3274C39.5084 44.7735 38.8049 45 38.0969 45C37.5517 45.0001 37.0039 44.8658 36.4977 44.5942L26.3194 39.1319C26.1194 39.0245 25.8808 39.0245 25.6808 39.1319L15.5027 44.5942C14.3388 45.2187 12.9545 45.1168 11.8905 44.3275C10.8266 43.5384 10.3039 42.2264 10.5262 40.9032L12.47 29.3339C12.5082 29.1067 12.4344 28.8749 12.2728 28.714L4.03838 20.5205C3.09655 19.5835 2.76398 18.2082 3.1705 16.9315C3.57701 15.6547 4.63779 14.7417 5.9392 14.5488L17.3188 12.8609C17.5422 12.8277 17.7352 12.6845 17.8353 12.4779L22.9244 1.95166C23.5064 0.747814 24.6849 0 26 0C27.3151 0 28.4936 0.747814 29.0756 1.95166L34.1647 12.4778C34.2647 12.6845 34.4578 12.8277 34.6811 12.8608L46.0609 14.5488C47.3623 14.7417 48.4232 15.6547 48.8296 16.9315ZM38.7697 41.377L36.8259 29.8074C36.635 28.6715 37.0036 27.5131 37.8122 26.7086L46.0466 18.5151C46.3223 18.241 46.2598 17.9218 46.2202 17.7973C46.1806 17.6728 46.0473 17.3771 45.6665 17.3207L34.2868 15.6328C33.1696 15.4671 32.2042 14.7512 31.7045 13.7175L26.6154 3.19127V3.19117C26.4449 2.83883 26.1284 2.80088 26.0003 2.80088C25.872 2.80088 25.5555 2.83893 25.3852 3.19117L20.296 13.7174C19.7962 14.7511 18.8307 15.467 17.7135 15.6326L6.33404 17.3206C5.95322 17.377 5.81985 17.6726 5.78034 17.7972C5.74062 17.9216 5.67825 18.2407 5.95383 18.515L14.1882 26.7085C14.9969 27.5131 15.3655 28.6715 15.1747 29.8074L13.2308 41.3768C13.1657 41.7639 13.3999 41.9847 13.5036 42.0615C13.6073 42.1384 13.8853 42.2975 14.226 42.1147L24.4042 36.6525C24.9038 36.3846 25.452 36.2504 26.0002 36.2504C26.5484 36.2504 27.0965 36.3846 27.5962 36.6526L37.7745 42.1149C38.115 42.2978 38.3931 42.1385 38.4969 42.0617C38.6006 41.9849 38.8348 41.7641 38.7697 41.377Z" fill="#86ADEF"/>
<path id="Path" d="M41.4614 1.27597C40.8775 0.807041 40.0606 0.950158 39.6365 1.59557L38.2496 3.70617C37.8255 4.35159 37.9549 5.25511 38.5386 5.72403C38.7707 5.91026 39.0393 6 39.3055 6C39.7096 6 40.108 5.79345 40.3635 5.40454L41.7504 3.29394C42.1745 2.64841 42.0451 1.74489 41.4614 1.27597Z" fill="#86ADEF"/>
<path id="Path_2" d="M13.7504 3.70604L12.3635 1.59543C11.9395 0.950218 11.1225 0.8071 10.5386 1.27582C9.95492 1.74475 9.8255 2.64828 10.2496 3.2937L11.6364 5.40432C11.8921 5.79356 12.2905 6 12.6946 6C12.9609 6 13.2296 5.91026 13.4614 5.72393C14.0451 5.2551 14.1745 4.35157 13.7504 3.70604Z" fill="#86ADEF"/>
<path id="Path_3" d="M4.93382 31.8104C4.70431 31.1947 3.94569 30.8576 3.23925 31.0577L0.929555 31.7121C0.223114 31.9122 -0.163313 32.5737 0.0661932 33.1895C0.250794 33.6851 0.778011 34 1.34486 34C1.48256 34 1.62265 33.9813 1.76076 33.9422L4.07045 33.2878C4.7768 33.0877 5.16332 32.4263 4.93382 31.8104Z" fill="#86ADEF"/>
<path id="Path_4" d="M26.5 47C25.6716 47 25 47.5882 25 48.3137V50.6863C25 51.4118 25.6716 52 26.5 52C27.3284 52 28 51.4118 28 50.6863V48.3137C28 47.5881 27.3285 47 26.5 47Z" fill="#86ADEF"/>
<path id="Path_5" d="M51.0705 31.712L48.7608 31.0576C48.0546 30.8577 47.2957 31.1945 47.0662 31.8105C46.8367 32.4264 47.2231 33.0879 47.9296 33.288L50.2393 33.9424C50.3774 33.9814 50.5173 34 50.6551 34C51.222 34 51.7492 33.685 51.9338 33.1894C52.1633 32.5736 51.7768 31.9121 51.0705 31.712Z" fill="#86ADEF"/>
</g>
</svg>

<svg width="52" height="52" fill="none" xmlns="http://www.w3.org/2000/svg"><g fill="#86ADEF"><path fill-rule="evenodd" clip-rule="evenodd" d="M48.83 16.931a3.53 3.53 0 01-.868 3.59l-8.235 8.193a.71.71 0 00-.197.62l1.944 11.57a3.514 3.514 0 01-1.364 3.423 3.37 3.37 0 01-2.013.673 3.375 3.375 0 01-1.6-.406L26.32 39.132a.673.673 0 00-.638 0l-10.178 5.462a3.351 3.351 0 01-3.613-.267 3.513 3.513 0 01-1.364-3.424l1.944-11.57a.71.71 0 00-.197-.619L4.038 20.52a3.53 3.53 0 01-.868-3.588c.407-1.277 1.468-2.19 2.77-2.383l11.379-1.688a.688.688 0 00.516-.383l5.09-10.526C23.505.748 24.684 0 26 0c1.315 0 2.494.748 3.076 1.952l5.089 10.526c.1.207.293.35.516.383l11.38 1.688c1.301.193 2.362 1.106 2.769 2.383zM38.77 41.377l-1.944-11.57a3.545 3.545 0 01.986-3.098l8.235-8.194a.693.693 0 00.173-.718.674.674 0 00-.553-.476l-11.38-1.688a3.435 3.435 0 01-2.582-1.915L26.614 3.19a.666.666 0 00-.615-.39.666.666 0 00-.615.39l-5.089 10.526a3.435 3.435 0 01-2.582 1.916L6.333 17.32a.673.673 0 00-.554.476.693.693 0 00.174.718l8.234 8.194a3.546 3.546 0 01.987 3.098l-1.944 11.57a.688.688 0 00.273.684.658.658 0 00.722.054l10.178-5.462a3.375 3.375 0 013.192 0l10.179 5.462c.34.183.618.023.722-.053a.688.688 0 00.273-.685z"/><path d="M41.461 1.276c-.584-.469-1.4-.326-1.825.32l-1.386 2.11c-.425.646-.295 1.55.289 2.018.232.186.5.276.767.276.404 0 .802-.207 1.058-.595l1.386-2.111c.425-.646.295-1.55-.289-2.018zM13.75 3.706l-1.386-2.11c-.425-.646-1.242-.789-1.825-.32-.584.469-.713 1.372-.29 2.018l1.387 2.11c.256.39.655.596 1.059.596.266 0 .535-.09.766-.276.584-.469.713-1.372.29-2.018zM4.934 31.81c-.23-.615-.988-.952-1.695-.752l-2.31.654c-.706.2-1.092.862-.863 1.478.185.495.712.81 1.279.81.138 0 .278-.019.416-.058l2.31-.654c.706-.2 1.092-.862.863-1.478zM26.5 47c-.828 0-1.5.588-1.5 1.314v2.372c0 .726.672 1.314 1.5 1.314s1.5-.588 1.5-1.314v-2.372c0-.726-.672-1.314-1.5-1.314zm24.57-15.288l-2.31-.654c-.705-.2-1.464.137-1.694.753-.23.615.157 1.277.864 1.477l2.31.654c.137.04.277.058.415.058.567 0 1.094-.315 1.279-.81.23-.616-.157-1.278-.863-1.478z"/></g></svg>
